src/assets/filled/Login1.svg

<?xml version="1.0" encoding="UTF-8"?>
<svg width="24" height="24" viewBox="0 0 24 24" xmlns="http://www.w3.org/2000/svg">
 <path d="m16.8 2h-2.6c-3.2 0-5.2 2-5.2 5.2v4.05h4.44l-2.07-2.07c-0.15-0.15-0.22-0.34-0.22-0.53s0.07-0.38 0.22-0.53c0.29-0.29 0.77-0.29 1.06 0l3.35 3.35c0.29 0.29 0.29 0.77 0 1.06l-3.35 3.35c-0.29 0.29-0.77 0.29-1.06 0s-0.29-0.77 0-1.06l2.07-2.07h-4.44v4.05c0 3.2 2 5.2 5.2 5.2h2.59c3.2 0 5.2-2 5.2-5.2v-9.6c0.01-3.2-1.99-5.2-5.19-5.2z"/>
 <path d="m2.75 11.25c-0.41 0-0.75 0.34-0.75 0.75s0.34 0.75 0.75 0.75h6.25v-1.5h-6.25z"/>
</svg>

<svg width="24" height="24" viewBox="0 0 24 24"  xmlns="http://www.w3.org/2000/svg">
<path d="M16.8 2H14.2C11 2 9 4 9 7.2V11.25H13.44L11.37 9.18C11.22 9.03 11.15 8.84 11.15 8.65C11.15 8.46 11.22 8.27 11.37 8.12C11.66 7.83 12.14 7.83 12.43 8.12L15.78 11.47C16.07 11.76 16.07 12.24 15.78 12.53L12.43 15.88C12.14 16.17 11.66 16.17 11.37 15.88C11.08 15.59 11.08 15.11 11.37 14.82L13.44 12.75H9V16.8C9 20 11 22 14.2 22H16.79C19.99 22 21.99 20 21.99 16.8V7.2C22 4 20 2 16.8 2Z" />
<path d="M2.75 11.25C2.34 11.25 2 11.59 2 12C2 12.41 2.34 12.75 2.75 12.75H9V11.25H2.75Z" />
</svg>
